src/assets/github.svg

<?xml version="1.0" encoding="UTF-8"?>
<svg width="30px" height="30px" viewBox="0 0 30 30" version="1.1" xmlns="http://www.w3.org/2000/svg" xmlns:xlink="http://www.w3.org/1999/xlink">
    <title>0BB65807-636A-4832-A271-6D45CF8BA3AE</title>
    <g id="Page-1" stroke="none" stroke-width="1" fill="none" fill-rule="evenodd">
        <g id="Artboard-Copy-3" transform="translate(-654.000000, -839.000000)" fill="#FFFFFE">
            <g id="Github" transform="translate(654.000000, 839.000000)">
                <path d="M15.0270248,0.110593746 C6.75917355,0.110593746 0.0547933884,6.8144097 0.0547933884,15.0846398 C0.0547933884,21.700675 4.34479339,27.3136796 10.293719,29.2937044 C11.0419835,29.4323185 11.3166942,28.9688662 11.3166942,28.5733572 C11.3166942,28.2162832 11.3028099,27.0366993 11.2963636,25.7854525 C7.13107438,26.6912798 6.25214876,24.0186803 6.25214876,24.0186803 C5.57107438,22.2878633 4.58975207,21.8276347 4.58975207,21.8276347 C3.23132231,20.8982504 4.69214876,20.917344 4.69214876,20.917344 C6.19561983,21.0227304 6.98727273,22.4604491 6.98727273,22.4604491 C8.32264463,24.74969 10.4898347,24.0878633 11.3442149,23.7052487 C11.478595,22.7376774 11.8666116,22.0765946 12.2947934,21.7029067 C8.9692562,21.3242595 5.47338843,20.040281 5.47338843,14.3025486 C5.47338843,12.6676953 6.05826446,11.3318914 7.01603306,10.2832346 C6.86057851,9.90582725 6.34809917,8.38305552 7.16107438,6.32045736 C7.16107438,6.32045736 8.41834711,5.91800523 11.2795041,7.85537953 C12.4738017,7.52359829 13.7546281,7.35721174 15.0270248,7.35150847 C16.2994215,7.35721174 17.5812397,7.52359829 18.7777686,7.85537953 C21.6354545,5.91800523 22.8909917,6.32045736 22.8909917,6.32045736 C23.7059504,8.38305552 23.1932231,9.90582725 23.0377686,10.2832346 C23.9977686,11.3318914 24.5786777,12.6676953 24.5786777,14.3025486 C24.5786777,20.0539193 21.0761157,21.3202921 17.7421488,21.6910043 C18.2791736,22.1556964 18.757686,23.0669789 18.757686,24.4640309 C18.757686,26.4673647 18.7403306,28.0799008 18.7403306,28.5733572 C18.7403306,28.9718419 19.0098347,29.4387657 19.7687603,29.2917206 C25.7144628,27.3094641 29.9990083,21.6984433 29.9990083,15.0846398 C29.9990083,6.8144097 23.2956198,0.110593746 15.0270248,0.110593746" id="Fill-51"></path>
                <path d="M5.72553719,21.6101667 C5.69256198,21.6848051 5.57553719,21.7068742 5.46892562,21.6557928 C5.36033058,21.6069431 5.29933884,21.5055242 5.33454545,21.4308858 C5.36677686,21.3542637 5.48404959,21.3331864 5.59239669,21.3840198 C5.70123967,21.4331175 5.76322314,21.5355283 5.72553719,21.6101667" id="Fill-52"></path>
                <path d="M6.33198347,22.2866235 C6.26057851,22.352831 6.12099174,22.3220829 6.02628099,22.2174404 C5.92834711,22.1130459 5.91,21.9734399 5.98239669,21.9062405 C6.05603306,21.8400331 6.19140496,21.8710291 6.28958678,21.9754236 C6.38752066,22.081058 6.40661157,22.2196721 6.33198347,22.2866235" id="Fill-53"></path>
                <path d="M6.92231405,23.1490563 C6.83057851,23.2127841 6.68057851,23.1530238 6.58785124,23.019865 C6.4961157,22.8867062 6.4961157,22.7270147 6.58983471,22.663039 C6.68280992,22.5990632 6.83057851,22.6565918 6.92454545,22.7887588 C7.01603306,22.9239014 7.01603306,23.0838407 6.92231405,23.1490563" id="Fill-54"></path>
                <path d="M7.73107438,23.982229 C7.64900826,24.0727373 7.47421488,24.0484364 7.34628099,23.9249483 C7.2153719,23.8041879 7.17892562,23.632842 7.26123967,23.5423337 C7.34429752,23.4515774 7.52008264,23.4771181 7.64900826,23.5996143 C7.77892562,23.7201267 7.81859504,23.8927125 7.73107438,23.982229" id="Fill-55"></path>
                <path d="M8.84677686,24.4660146 C8.81057851,24.5833035 8.6422314,24.6366166 8.47264463,24.586775 C8.30330579,24.5354457 8.19247934,24.3980714 8.22669421,24.2795426 C8.26190083,24.1615098 8.43099174,24.105965 8.60181818,24.1592781 C8.77090909,24.2103596 8.88198347,24.346742 8.84677686,24.4660146" id="Fill-56"></path>
                <path d="M10.0720661,24.555779 C10.076281,24.6792671 9.93247934,24.7816779 9.75446281,24.7836617 C9.57545455,24.7878771 9.43066116,24.687946 9.42867769,24.5664417 C9.42867769,24.4417137 9.5692562,24.3402948 9.74826446,24.3373192 C9.92628099,24.3338476 10.0720661,24.4330349 10.0720661,24.555779" id="Fill-57"></path>
                <path d="M11.212314,24.3616201 C11.2336364,24.4821325 11.1099174,24.6058686 10.9331405,24.6386004 C10.7593388,24.6705882 10.5984298,24.5961978 10.5763636,24.4766772 C10.5547934,24.3531891 10.6807438,24.2294531 10.8542975,24.1974652 C11.0313223,24.1667172 11.1897521,24.2391238 11.212314,24.3616201" id="Fill-58"></path>
            </g>
        </g>
    </g>
</svg>

<svg xmlns="http://www.w3.org/2000/svg" width="30" height="30" fill="#fffffe" fill-rule="evenodd" xmlns:v="https://vecta.io/nano"><path d="M15.027.111C6.759.111.055 6.814.055 15.085c0 6.616 4.29 12.229 10.239 14.209.748.139 1.023-.325 1.023-.72l-.02-2.788c-4.165.906-5.044-1.767-5.044-1.767-.681-1.731-1.662-2.191-1.662-2.191-1.358-.929.102-.91.102-.91 1.503.105 2.295 1.543 2.295 1.543 1.335 2.289 3.503 1.627 4.357 1.245.134-.968.522-1.629.951-2.002-3.326-.379-6.821-1.663-6.821-7.4 0-1.635.585-2.971 1.543-4.019-.155-.377-.668-1.9.145-3.963 0 0 1.257-.402 4.118 1.535a14.35 14.35 0 0 1 3.748-.504c1.272.006 2.554.172 3.751.504 2.858-1.937 4.113-1.535 4.113-1.535.815 2.063.302 3.585.147 3.963.96 1.049 1.541 2.384 1.541 4.019 0 5.751-3.503 7.018-6.837 7.388.537.465 1.016 1.376 1.016 2.773l-.017 4.109c0 .398.27.865 1.028.718 5.946-1.982 10.23-7.593 10.23-14.207 0-8.27-6.703-14.974-14.972-14.974"/><path d="M5.726 21.61c-.033.075-.15.097-.257.046s-.17-.15-.134-.225.15-.098.258-.047.171.152.133.226m.606.677c-.071.066-.211.035-.306-.069s-.116-.244-.044-.311.209-.035.307.069.117.244.042.311m.591.862c-.092.064-.242.004-.334-.129s-.092-.293.002-.357.241-.006.335.126.091.295-.002.36m.808.833c-.082.091-.257.066-.385-.057s-.167-.292-.085-.383.259-.065.388.057.17.293.082.383m1.116.484c-.036.117-.205.171-.374.121s-.28-.189-.246-.307.204-.174.375-.12.28.187.245.307m1.225.089c.004.123-.14.226-.318.228s-.324-.096-.326-.217.141-.226.32-.229.324.096.324.218m1.14-.194c.021.121-.102.244-.279.277s-.335-.042-.357-.162.104-.247.278-.279.335.042.358.164"/></svg>
